X:11010
T:Keep the Home Fires Burning
R:March
C:Ivor Novello 1914
O:England
Z:Paul Hardy's Session Tunebook 2015 (see www.paulhardy.net). Creative Commons cc by-nc-sa licenced.
M:4/4
L:1/8
Q:1/4=120
K:G
"G"B3 c d2 B2|"Bm"B4 "D"A4|"Em"G3 A "Bm"B2 G2|"Em"G4 "Bm"F4|"Em"E3 F G2 E2|"G"D2 G2 B2 dc|"Em"B4 "A7"A4|"D"A8|
"G"B3 c d2 B2|"Bm"B4 "D"A4|"Em"G3 A "Bm"B2 G2|"Em"G4 "Bm"F4|"Em"E3 F G2 E2|"G"D2 G2 B2 dc|"Em"B4 "D7"A4|"G"G8|]

